<?xml version="1.0" encoding="UTF-8"?>
<map version="1.10" tiledversion="1.11.2" orientation="orthogonal" renderorder="right-down" width="24" height="24" tilewidth="16" tileheight="16" infinite="0" nextlayerid="9" nextobjectid="1">
 <tileset firstgid="1" source="TopDownHouse_FloorsAndWalls.tsx"/>
 <tileset firstgid="163" source="FurnitureState1.tsx"/>
 <tileset firstgid="397" source="FurnitureState2.tsx"/>
 <tileset firstgid="631" source="DoorsAndWindows.tsx"/>
 <tileset firstgid="811" source="SmallItems.tsx"/>
 <layer id="1" name="Floor" width="24" height="24">
  <data encoding="csv">
28,29,30,29,30,29,30,29,30,29,30,29,30,29,30,29,30,29,30,29,30,29,30,31,
46,47,48,47,48,47,48,47,48,47,48,47,48,47,48,47,48,47,48,47,48,47,48,49,
64,65,66,65,66,65,66,65,66,65,66,65,66,65,66,65,66,65,66,65,66,65,66,67,
82,83,84,83,84,83,84,83,84,83,84,83,84,83,84,83,84,83,84,83,84,83,84,85,
92,93,94,93,94,93,94,93,94,93,94,93,94,93,94,93,94,93,94,93,94,93,94,95,
110,111,112,111,112,111,112,111,112,111,112,111,112,111,112,111,112,111,112,111,112,111,112,113,
110,111,112,111,112,111,112,111,112,111,112,111,112,111,112,111,112,111,112,111,112,111,112,113,
110,111,112,111,112,111,112,111,112,111,112,111,112,111,112,111,112,111,112,111,112,111,112,113,
110,111,112,111,112,111,112,111,112,111,112,111,112,111,112,111,112,111,112,111,112,111,112,113,
110,111,112,111,112,111,112,111,112,111,112,111,112,111,112,111,112,111,112,111,112,111,112,113,
110,111,112,111,112,111,112,111,112,111,112,111,112,111,112,111,112,111,112,111,112,111,112,113,
110,111,112,111,112,111,112,111,112,111,112,111,112,111,112,111,112,111,112,111,112,111,112,113,
110,111,112,111,112,111,112,111,112,111,112,111,112,111,112,111,112,111,112,111,112,111,112,113,
110,111,112,111,112,111,112,111,112,111,112,111,112,111,112,111,112,111,112,111,112,111,112,113,
110,111,112,111,112,111,112,111,112,111,112,111,112,111,112,111,112,111,112,111,112,111,112,113,
110,111,112,111,112,111,112,111,112,111,112,111,112,111,112,111,112,111,112,111,112,111,112,113,
110,111,112,111,112,111,112,111,112,111,112,111,112,111,112,111,112,111,112,111,112,111,112,113,
110,111,112,111,112,111,112,111,112,111,112,111,112,111,112,111,112,111,112,111,112,111,112,113,
110,111,112,111,112,111,112,111,112,111,112,111,112,111,112,111,112,111,112,111,112,111,112,113,
110,111,112,111,112,111,112,111,112,111,112,111,112,111,112,111,112,111,112,111,112,111,112,113,
110,111,112,111,112,111,112,111,112,111,112,111,112,111,112,111,112,111,112,111,112,111,112,113,
110,111,112,111,112,111,112,111,112,111,112,111,112,111,112,111,112,111,112,111,112,111,112,113,
110,111,112,111,112,111,112,111,112,111,112,111,112,111,112,111,112,111,112,111,112,111,112,113,
128,129,130,129,130,129,130,129,130,129,130,129,130,129,130,129,130,129,130,129,130,129,130,131
</data>
 </layer>
 <layer id="6" name="Carpet" width="24" height="24">
  <data encoding="csv">
0,0,0,0,0,0,0,0,0,0,0,0,0,0,0,0,0,0,0,0,0,0,0,0,
0,0,0,0,0,0,0,0,0,0,0,0,0,0,0,0,0,0,0,0,0,0,0,0,
0,0,0,0,0,0,0,0,0,0,0,0,0,0,0,0,0,0,0,0,0,0,0,0,
0,0,0,0,0,0,0,0,0,0,0,0,0,0,0,0,0,0,0,0,0,0,0,0,
0,0,0,0,0,0,0,0,0,0,0,0,0,0,0,0,0,0,0,0,0,0,0,0,
0,0,0,0,0,0,0,0,0,0,0,0,0,0,0,0,0,0,0,0,0,0,0,0,
0,0,0,0,0,0,0,0,0,0,0,0,0,0,0,0,0,0,0,0,0,0,0,0,
0,0,0,0,0,0,0,0,0,0,0,0,0,0,0,0,0,0,0,0,0,0,0,0,
0,0,0,0,0,0,0,0,0,0,0,0,0,0,0,0,0,0,0,0,0,0,0,0,
0,0,0,0,0,0,0,0,0,0,0,0,0,0,0,0,0,0,0,0,0,0,0,0,
0,0,0,0,0,0,0,0,0,0,0,0,0,0,0,0,0,0,0,0,0,0,0,0,
1610612963,1610612976,1610612976,1610612976,1610612976,1610612976,1610612976,1610612976,1610612989,0,0,0,0,0,0,3758096637,3758096624,1610612976,1610612976,1610612976,1610612976,1610612976,3758096624,3758096611,
1610612962,1610612975,1610612975,1610612975,1610612975,1610612975,1610612975,1610612975,1610612988,0,0,0,0,0,0,3758096636,3758096623,1610612975,1610612975,1610612975,1610612975,1610612975,3758096623,3758096610,
1610612961,1610612974,1610612974,1610612974,1610612974,1610612974,1610612974,1610612974,1610612987,0,0,0,0,0,0,3758096635,3758096622,1610612974,1610612974,1610612974,1610612974,1610612974,3758096622,3758096609,
0,0,0,0,0,0,0,0,0,0,0,0,0,0,0,0,0,0,0,0,0,0,0,0,
0,0,0,0,0,0,0,0,0,0,0,0,0,0,0,0,0,0,0,0,0,0,0,0,
0,0,0,0,0,0,0,0,0,0,0,0,0,0,0,0,0,0,0,0,0,0,0,0,
0,0,0,0,0,0,0,0,0,0,0,0,0,0,0,0,0,0,0,0,0,0,0,0,
0,0,0,0,0,0,0,0,0,0,0,0,0,0,0,0,0,0,0,0,0,0,0,0,
0,0,0,0,0,0,0,0,0,0,0,0,0,0,0,0,0,0,0,0,0,0,0,0,
0,0,0,0,0,0,0,0,0,0,0,0,0,0,0,0,0,0,0,0,0,0,0,0,
0,0,0,0,0,0,0,0,0,0,0,0,0,0,0,0,0,0,0,0,0,0,0,0,
0,0,0,0,0,0,0,0,0,0,0,0,0,0,0,0,0,0,0,0,0,0,0,0,
0,0,0,0,0,0,0,0,0,0,0,0,0,0,0,0,0,0,0,0,0,0,0,0
</data>
 </layer>
 <layer id="3" name="Chair_front" width="24" height="24">
  <data encoding="csv">
0,0,0,0,0,0,0,0,0,0,0,0,0,0,0,0,0,0,0,0,0,0,0,0,
0,0,0,0,0,0,0,0,0,0,0,0,0,0,0,0,0,0,0,0,0,0,0,0,
0,0,0,0,0,0,0,0,0,0,0,0,0,0,0,0,0,0,0,0,0,0,0,0,
0,0,0,0,0,0,0,0,0,0,0,0,0,0,0,0,0,0,0,0,0,0,0,0,
0,171,171,171,0,171,171,171,0,0,172,0,0,2147483820,0,0,171,171,171,0,171,171,171,0,
0,184,184,184,0,184,184,184,0,0,185,0,0,2147483833,0,0,184,184,184,0,184,184,184,0,
0,0,0,0,0,0,0,0,0,0,0,0,0,0,0,0,0,0,0,0,0,0,0,0,
0,171,171,171,0,171,171,171,0,0,0,0,0,0,0,0,171,171,171,0,171,171,171,0,
0,184,184,184,0,184,184,184,0,0,172,0,0,2147483820,0,0,184,184,184,0,184,184,184,0,
0,0,0,0,0,0,0,0,0,0,185,0,0,2147483833,0,0,0,0,0,0,0,0,0,0,
0,0,0,0,0,0,0,0,0,0,0,0,0,0,0,0,0,0,0,0,0,0,0,0,
0,0,0,0,0,0,0,0,0,0,0,0,0,0,0,0,0,0,0,0,0,0,0,0,
0,0,0,0,0,0,0,0,0,0,172,0,0,2147483820,0,0,0,0,0,0,0,0,0,0,
0,0,0,0,0,0,0,0,0,0,185,0,0,2147483833,0,0,0,0,0,0,0,0,0,0,
0,171,171,171,0,171,171,171,0,0,0,0,0,0,0,0,171,171,171,0,171,171,171,0,
0,184,184,184,0,184,184,184,0,0,0,0,0,0,0,0,184,184,184,0,184,184,184,0,
0,0,0,0,0,0,0,0,0,0,172,0,0,2147483820,0,0,0,0,0,0,0,0,0,0,
0,171,171,171,0,171,171,171,0,0,185,0,0,2147483833,0,0,171,171,171,0,171,171,171,0,
0,184,184,184,0,184,184,184,0,0,0,0,0,0,0,0,184,184,184,0,184,184,184,0,
0,0,0,0,0,0,0,0,0,0,0,0,0,0,0,0,0,0,0,0,0,0,0,0,
0,0,0,0,0,0,0,0,0,0,0,0,0,0,0,0,0,0,0,0,0,0,0,0,
0,0,0,0,0,0,0,0,0,0,1610613197,1610613210,2684355032,2684355019,0,0,0,0,0,0,0,0,0,0,
0,0,0,0,0,0,0,0,0,0,1610613196,1610613209,2684355033,2684355020,0,0,0,0,0,0,0,0,0,0,
0,0,0,0,0,0,0,0,0,0,1610613195,1610613208,2684355034,2684355021,0,0,0,0,0,0,0,0,0,0
</data>
 </layer>
 <layer id="2" name="Table" width="24" height="24">
  <data encoding="csv">
0,0,0,0,0,0,0,0,0,0,0,0,0,0,0,0,0,0,0,0,0,0,0,0,
0,693,694,0,0,0,0,0,693,694,0,2147484378,2147484377,0,693,694,0,0,0,0,0,693,694,0,
0,711,712,0,0,0,0,0,711,712,0,2147484396,2147484395,0,711,712,0,0,0,0,0,711,712,0,
0,0,0,0,0,0,0,0,0,0,0,2147484414,2147484413,0,0,0,0,0,0,0,0,0,0,0,
0,0,0,0,0,0,0,0,0,0,0,0,0,0,0,0,0,0,0,0,0,0,0,0,
0,189,190,191,112,189,190,191,112,0,172,215,216,2147483820,0,111,189,190,191,111,189,190,191,0,
0,202,203,204,112,202,203,204,112,0,185,228,229,2147483833,0,111,202,203,204,111,202,203,204,0,
0,0,0,0,112,0,0,0,0,0,0,241,242,0,0,0,0,0,0,111,0,0,0,0,
0,189,190,191,0,189,190,191,0,0,0,0,0,0,0,0,189,190,191,0,189,190,191,0,
0,202,203,204,0,202,203,204,0,0,172,215,216,2147483820,0,0,202,203,204,0,202,203,204,0,
0,0,0,0,0,0,0,0,0,0,185,228,229,2147483833,0,0,0,0,0,0,0,0,0,0,
175,194,195,175,0,175,194,195,175,0,0,241,242,0,0,175,194,195,175,0,175,194,195,175,
188,207,208,188,0,188,207,208,188,0,0,0,0,0,0,188,207,208,188,0,188,207,208,188,
0,0,0,0,0,0,0,0,0,0,172,215,216,2147483820,0,0,0,0,0,0,0,0,0,0,
0,0,0,0,0,0,0,0,0,0,185,228,229,2147483833,0,0,0,0,0,0,0,0,0,0,
0,189,190,191,112,189,190,191,0,0,0,241,242,0,0,0,189,190,191,112,189,190,191,0,
0,202,203,204,112,202,203,204,0,0,0,0,0,0,0,0,202,203,204,112,202,203,204,0,
0,0,0,0,112,0,0,0,0,0,172,215,216,2147483820,0,0,0,0,0,112,0,0,0,0,
0,189,190,191,0,189,190,191,0,0,185,228,229,2147483833,0,0,189,190,191,0,189,190,191,0,
0,202,203,204,0,202,203,204,0,0,0,241,242,0,0,0,202,203,204,0,202,203,0,0,
557,558,559,560,561,562,563,564,565,0,0,0,0,0,0,2147483979,2147483978,2147483977,2147483976,2147483975,2147483974,2147483973,0,0,
570,571,572,573,574,575,576,577,578,0,0,0,0,0,0,2147483992,2147483991,2147483990,2147483989,2147483988,2147483987,2147483986,0,0,
583,584,585,586,587,588,589,590,591,0,0,0,0,0,0,2147484005,2147484004,2147484003,2147484002,2147484001,2147484000,2147483999,0,0,
0,0,0,0,0,0,0,603,604,0,0,0,0,0,0,2147484018,2147484017,0,0,0,0,0,0,0
</data>
 </layer>
 <layer id="7" name="Others_2" width="24" height="24">
  <data encoding="csv">
0,0,0,0,0,0,0,0,0,0,0,0,0,0,0,0,0,0,0,0,0,0,0,0,
0,0,0,0,0,0,0,0,0,0,0,0,0,0,0,0,0,0,0,0,0,0,0,0,
0,0,0,0,0,0,0,0,0,0,0,0,0,0,0,0,0,0,0,0,0,0,0,0,
0,0,0,0,0,0,0,0,0,0,0,0,0,0,0,0,0,0,0,0,0,0,0,0,
0,0,0,0,0,0,0,0,0,0,0,0,0,0,0,0,0,0,0,0,0,0,0,0,
0,0,0,860,0,846,844,859,0,0,0,0,0,0,0,0,0,0,0,0,0,0,844,0,
0,0,0,0,0,0,0,0,0,0,0,0,3758097228,0,0,0,0,0,0,0,0,0,0,0,
0,0,0,0,0,0,0,0,0,0,0,0,0,0,0,0,0,0,0,0,0,0,0,0,
0,0,0,0,0,860,861,0,0,0,0,0,0,0,0,0,0,861,0,0,0,0,0,0,
0,0,0,0,0,0,0,0,0,0,0,0,0,0,0,0,0,0,0,0,0,0,0,0,
0,0,0,0,0,0,0,0,0,0,0,0,0,0,0,0,0,0,0,0,0,0,0,0,
0,0,0,0,0,0,0,0,0,0,0,0,0,0,0,0,0,0,0,0,0,0,0,0,
0,0,0,0,0,0,0,0,0,0,0,0,0,0,0,0,0,0,0,0,0,0,0,0,
0,0,0,0,0,0,0,0,0,0,0,0,0,0,0,0,0,0,0,0,0,0,0,0,
0,0,0,0,0,0,0,0,0,0,0,536871757,0,0,0,0,0,0,0,0,0,0,0,0,
0,862,0,0,0,0,0,0,0,0,0,0,0,0,0,0,0,845,0,0,0,862,0,0,
0,0,0,0,0,0,0,0,0,0,0,0,0,0,0,0,0,0,0,0,0,0,0,0,
0,0,0,0,0,0,0,0,0,0,0,1610613582,0,0,0,0,0,0,0,0,0,0,0,0,
0,0,859,861,0,846,0,0,0,0,0,0,0,0,0,0,0,0,0,0,845,0,0,0,
0,0,0,0,0,0,0,0,0,0,0,0,0,0,0,0,0,0,0,0,0,0,0,0,
0,0,0,0,0,0,0,0,0,0,0,0,0,0,0,0,0,0,0,0,0,0,0,0,
0,0,0,0,0,0,0,0,0,0,0,0,0,0,0,0,0,0,0,0,0,0,0,0,
0,0,0,0,0,0,0,0,0,0,0,0,0,0,0,0,0,0,0,0,0,0,0,0,
0,0,0,0,0,0,0,0,0,0,0,0,0,0,0,0,0,0,0,0,0,0,0,0
</data>
 </layer>
 <layer id="4" name="Chair_back" width="24" height="24">
  <data encoding="csv">
0,0,0,0,0,0,0,0,0,0,0,0,0,0,0,0,0,0,0,0,0,0,0,0,
0,0,0,0,0,0,0,0,0,0,0,637,638,0,0,0,0,0,0,0,0,0,0,0,
0,0,0,0,0,0,0,0,0,0,0,655,656,0,0,0,0,0,0,0,0,0,0,0,
0,0,0,0,0,0,0,0,0,0,0,673,674,0,0,0,0,0,0,0,0,0,0,0,
0,0,0,0,0,0,0,0,0,0,0,0,0,0,0,0,0,0,0,0,0,0,0,0,
0,173,173,173,0,173,173,173,0,0,0,0,0,0,0,0,173,173,173,0,173,173,173,0,
0,186,186,186,0,186,186,186,0,0,172,0,0,2147483820,0,0,186,186,186,0,186,186,186,0,
0,0,0,0,0,0,0,0,0,0,185,0,0,2147483833,0,0,0,0,0,0,0,0,0,0,
0,173,173,173,0,173,173,173,0,0,0,0,0,0,0,0,173,173,173,0,173,173,173,0,
0,186,186,186,0,186,186,186,0,0,0,0,0,0,0,0,186,186,186,0,186,186,186,0,
0,0,0,0,0,0,0,0,0,0,172,0,0,2147483820,0,0,0,0,0,0,0,0,0,0,
0,0,0,0,0,0,0,0,0,0,185,0,0,2147483833,0,0,0,0,0,0,0,0,0,0,
0,0,0,0,0,0,0,0,0,0,0,0,0,0,0,0,0,0,0,0,0,0,0,0,
0,0,0,0,0,0,0,0,0,0,0,0,0,0,0,0,0,0,0,0,0,0,0,0,
0,0,0,0,0,0,0,0,0,0,172,0,0,2147483820,0,0,0,0,0,0,0,0,0,0,
0,173,173,173,0,173,173,173,0,0,185,0,0,2147483833,0,0,173,173,173,0,173,173,173,0,
0,186,186,186,0,186,186,186,0,0,0,0,0,0,0,0,186,186,186,0,186,186,186,0,
0,0,0,0,0,0,0,0,0,0,0,0,0,0,0,0,0,0,0,0,0,0,0,0,
0,173,173,173,0,173,173,173,0,0,172,0,0,2147483820,0,0,173,173,173,0,173,173,173,0,
0,186,186,186,0,186,186,186,0,0,185,0,0,2147483833,0,0,186,186,186,0,186,186,186,0,
0,0,0,0,0,0,0,0,0,0,0,0,0,0,0,0,0,0,0,0,0,0,0,0,
0,0,0,0,0,0,0,0,0,0,0,0,0,0,0,0,0,0,0,0,0,0,0,0,
0,0,0,0,0,0,0,0,0,0,0,0,0,0,0,0,0,0,0,0,0,0,0,0,
0,0,0,0,0,0,0,0,0,0,0,0,0,0,0,0,0,0,0,0,0,0,0,0
</data>
 </layer>
 <layer id="5" name="Others" width="24" height="24">
  <data encoding="csv">
0,0,0,0,0,0,0,0,0,0,0,0,0,0,0,0,0,0,0,0,0,0,0,0,
0,0,0,0,0,824,0,0,0,0,0,0,0,0,0,0,0,819,0,820,0,0,0,0,
0,0,0,0,0,0,0,0,0,0,0,0,0,0,0,0,0,0,0,0,0,0,0,0,
0,0,0,0,0,0,0,0,0,0,0,0,0,0,0,0,0,0,0,0,0,0,0,0,
0,0,0,0,0,0,0,0,0,0,0,0,0,0,0,0,0,0,0,0,0,0,0,0,
0,0,3221226318,0,0,0,0,0,0,0,0,859,0,0,0,0,0,1073742667,1073742668,0,0,0,0,0,
0,0,0,0,0,0,0,0,0,0,0,0,0,0,0,0,0,0,0,0,0,0,0,0,
0,0,0,0,0,0,0,0,0,0,0,0,0,0,0,0,0,0,0,0,0,0,0,0,
0,0,1073742668,0,0,0,0,1073742669,0,0,0,0,0,0,0,0,1073742669,0,0,0,0,0,0,0,
0,0,0,0,0,0,0,0,0,0,0,0,0,0,0,0,0,0,0,0,0,0,0,0,
0,0,0,0,0,0,0,0,0,0,0,0,860,0,0,0,0,0,0,0,0,0,0,0,
0,0,0,0,293,0,0,0,0,0,0,0,0,0,0,0,0,0,0,293,0,0,0,0,
0,0,0,0,306,0,0,0,0,0,0,0,0,0,0,0,0,0,0,306,0,0,0,0,
0,0,0,0,0,0,0,0,0,0,0,0,861,0,0,0,0,0,0,0,0,0,0,0,
0,0,0,0,0,0,0,0,0,0,0,0,0,0,0,0,0,0,0,0,0,0,0,0,
0,0,0,3221226318,0,0,0,0,0,0,0,0,0,0,0,0,3221226318,0,0,0,0,0,1073742667,0,
0,0,0,0,0,0,0,0,0,0,0,0,0,0,0,0,0,0,0,0,0,0,0,0,
0,0,0,0,0,0,0,0,0,0,0,0,0,0,0,0,0,0,0,0,0,0,0,0,
0,0,0,0,0,0,1073742667,0,0,0,0,862,0,0,0,0,0,0,0,0,0,0,0,0,
0,0,0,0,0,0,0,0,0,0,0,0,0,0,0,0,0,0,0,0,0,0,321,322,
0,848,0,0,855,0,826,0,0,0,0,0,0,0,0,0,0,838,0,0,0,0,334,335,
0,0,0,0,0,0,0,0,0,0,0,0,0,0,0,825,0,0,0,0,0,0,347,348,
0,0,0,0,0,0,0,0,0,0,0,0,0,0,0,0,0,0,0,0,0,0,360,361,
0,0,0,0,0,0,0,0,0,0,0,0,0,0,0,0,0,0,0,0,0,0,0,0
</data>
 </layer>
 <layer id="8" name="Last" width="24" height="24">
  <data encoding="csv">
0,0,0,0,0,0,0,0,0,0,0,0,0,0,0,0,0,0,0,0,0,0,0,0,
0,0,0,0,0,0,0,0,0,0,0,0,0,0,0,0,0,0,0,0,0,0,0,0,
0,0,0,0,0,0,0,0,0,0,0,0,0,0,0,0,0,0,0,0,0,0,0,0,
0,0,0,0,0,0,0,0,0,0,0,0,0,0,0,0,0,0,0,0,0,0,0,0,
0,0,0,0,0,0,0,0,0,0,0,0,0,0,0,0,0,0,0,0,0,0,0,0,
0,0,0,0,0,0,0,0,0,0,0,0,0,0,0,0,0,0,0,0,0,0,0,0,
0,0,0,0,0,0,0,0,0,0,0,0,0,0,0,0,0,0,0,0,0,0,0,0,
0,0,0,0,0,0,0,0,0,0,0,0,0,0,0,0,0,0,0,0,0,0,0,0,
0,0,0,0,0,0,0,0,0,0,0,0,0,0,0,0,0,0,0,0,0,0,0,0,
0,0,0,0,0,0,0,0,0,0,0,0,0,0,0,0,0,0,0,0,0,0,0,0,
0,0,0,0,0,0,0,0,0,0,0,0,0,0,0,0,0,0,0,0,0,0,0,0,
0,0,0,0,0,0,0,0,0,0,0,0,0,0,0,0,0,0,0,0,0,0,0,0,
0,0,0,0,0,0,0,0,0,0,0,0,0,0,0,0,0,0,0,0,0,0,0,0,
0,0,0,0,0,0,0,0,0,0,0,0,0,0,0,0,0,0,0,0,0,0,0,0,
0,0,0,0,0,0,0,0,0,0,0,0,0,0,0,0,0,0,0,0,0,0,0,0,
0,0,0,0,0,0,0,0,0,0,0,0,0,0,0,0,0,0,0,0,0,0,0,0,
0,0,0,0,0,0,0,0,0,0,0,0,0,0,0,0,0,0,0,0,0,0,0,0,
0,0,0,0,0,0,0,0,0,0,0,0,0,0,0,0,0,0,0,0,0,0,0,0,
0,0,0,0,0,0,0,0,0,0,0,0,0,0,0,0,0,0,0,0,0,0,0,0,
0,0,0,0,0,0,0,0,0,0,0,0,0,0,0,0,0,0,0,0,0,0,0,815,
0,0,0,0,0,0,0,0,0,0,0,0,0,0,0,0,0,0,0,0,0,0,0,0,
0,0,0,0,0,0,0,0,0,0,0,0,0,0,0,0,0,0,0,0,0,0,0,0,
0,0,0,0,0,0,0,0,0,0,0,0,0,0,0,0,0,0,0,0,0,0,0,0,
0,0,0,0,0,0,0,0,0,0,0,0,0,0,0,0,0,0,0,0,0,0,0,0
</data>
 </layer>
</map>
