<?xml version="1.0" encoding="UTF-8"?>
<map version="1.10" tiledversion="1.11.2" orientation="orthogonal" renderorder="right-down" width="24" height="24" tilewidth="16" tileheight="16" infinite="0" nextlayerid="16" nextobjectid="12">
 <tileset firstgid="1" source="kitchen16_tan.tsx"/>
 <tileset firstgid="769" source="DoorsAndWindows.tsx"/>
 <tileset firstgid="949" source="kitchen_v1.tsx"/>
 <tileset firstgid="2245" source="FurnitureState2.tsx"/>
 <tileset firstgid="2479" source="TX Props.tsx"/>
 <tileset firstgid="3503" source="TX Tileset Grass.tsx"/>
 <tileset firstgid="3759" source="FurnitureState1.tsx"/>
 <tileset firstgid="3993" source="SmallItems.tsx"/>
 <layer id="1" name="Floor" width="24" height="24">
  <data encoding="csv">
526,527,527,527,527,527,527,527,527,527,527,527,527,527,527,527,527,527,527,527,527,527,527,528,
526,527,527,527,527,527,527,527,527,527,527,527,527,527,527,527,527,527,527,527,527,527,527,528,
526,527,527,527,527,527,527,527,527,527,527,527,527,527,527,527,527,527,527,527,527,527,527,528,
542,543,543,543,543,543,543,543,543,543,543,543,543,543,543,543,543,543,543,543,543,543,543,544,
2119,2120,2084,2085,2086,2087,2084,2085,2084,2085,2086,2087,2084,2085,2084,2085,2086,2087,2084,2085,2086,2087,2123,2124,
2083,2084,2120,2121,2122,2123,2120,2121,2120,2121,2122,2123,2120,2121,2120,2121,2122,2123,2120,2121,2122,2123,2087,2088,
2119,2120,2084,2085,2086,2087,2156,2157,2084,2085,2086,2087,2156,2157,2156,2157,2158,2159,2156,2157,2158,2159,2123,2124,
2155,2156,2120,2084,2085,2086,2087,2156,2120,2084,2085,2086,2087,2156,2157,2158,2159,2084,2085,2086,2087,2158,2159,2160,
2191,2192,2084,2120,2121,2122,2084,2085,2086,2087,2121,2122,2084,2085,2086,2087,2086,2120,2084,2085,2086,2087,2195,2196,
2083,2084,2120,2121,2122,2123,2120,2121,2120,2121,2122,2123,2120,2121,2120,2121,2122,2123,2120,2121,2122,2123,2087,2088,
2119,2120,2084,2085,2086,2087,2156,2157,2084,2085,2086,2087,2156,2157,2156,2157,2158,2159,2156,2157,2158,2159,2123,2124,
2155,2156,2120,2084,2085,2086,2087,2156,2120,2084,2085,2086,2087,2156,2157,2158,2159,2084,2085,2086,2087,2158,2159,2160,
2191,2192,2084,2120,2121,2122,2084,2085,2086,2087,2121,2122,2084,2085,2086,2087,2086,2120,2084,2085,2086,2087,2195,2196,
2083,2084,2120,2156,2157,2158,2120,2121,2122,2123,2157,2158,2120,2121,2122,2123,2122,2156,2120,2121,2122,2123,2087,2088,
2119,2120,2156,2157,2158,2159,2156,2157,2158,2159,2158,2159,2156,2157,2158,2159,2158,2159,2156,2157,2158,2159,2123,2124,
2083,2084,2120,2121,2122,2123,2120,2121,2120,2121,2122,2123,2120,2121,2120,2121,2122,2123,2120,2121,2122,2123,2087,2088,
2119,2120,2084,2085,2086,2087,2156,2157,2084,2085,2086,2087,2156,2157,2156,2157,2158,2159,2156,2157,2158,2159,2123,2124,
2155,2156,2120,2084,2085,2086,2087,2156,2120,2084,2085,2086,2087,2156,2157,2158,2159,2084,2085,2086,2087,2158,2159,2160,
2191,2192,2084,2120,2121,2122,2084,2085,2086,2087,2121,2122,2084,2085,2086,2087,2086,2120,2084,2085,2086,2087,2195,2196,
2083,2084,2120,2121,2122,2123,2120,2121,2120,2121,2122,2123,2120,2121,2120,2121,2122,2123,2120,2121,2122,2123,2087,2088,
2119,2120,2084,2085,2086,2087,2156,2157,2084,2085,2086,2087,2156,2157,2156,2157,2158,2159,2156,2157,2158,2159,2123,2124,
2155,2156,2120,2084,2085,2086,2087,2156,2120,2084,2085,2086,2087,2156,2157,2158,2159,2084,2085,2086,2087,2158,2159,2160,
2191,2192,2084,2120,2121,2122,2084,2085,2086,2087,2121,2122,2084,2085,2086,2087,2086,2120,2084,2085,2086,2087,2195,2196,
2227,2228,2229,2230,2231,2228,2229,2230,2231,2228,2229,2230,2231,2228,2229,2230,2231,2228,2229,2228,2229,2230,2231,2232
</data>
 </layer>
 <layer id="3" name="Floor2" width="24" height="24">
  <data encoding="csv">
0,0,0,0,0,0,0,0,0,0,0,0,0,0,0,0,0,0,0,0,0,0,0,0,
0,0,0,0,0,0,0,0,0,0,0,0,0,0,0,0,0,0,0,0,0,0,0,0,
0,0,0,0,0,0,0,0,0,0,0,0,0,0,0,0,0,0,0,0,0,0,0,0,
49,50,54,55,56,57,58,59,0,0,0,0,0,0,0,0,0,0,0,0,0,0,0,0,
97,98,70,71,72,73,74,75,0,0,0,0,0,0,0,0,0,0,0,0,0,0,0,0,
113,114,0,0,0,0,0,0,0,0,0,0,0,0,0,0,0,0,0,0,0,0,0,0,
129,130,0,0,0,0,0,0,0,0,0,0,0,0,0,0,0,0,0,0,0,0,0,0,
0,0,0,0,0,0,0,0,0,0,0,0,0,0,0,0,0,0,0,0,0,0,0,0,
0,0,0,0,0,0,0,0,0,0,0,0,0,0,0,0,0,0,0,0,0,0,0,0,
0,0,0,0,0,0,0,0,0,0,0,0,0,0,0,0,0,0,0,0,0,0,0,0,
0,0,0,0,0,0,0,0,0,0,0,0,0,0,0,0,0,0,0,0,0,0,0,0,
0,0,0,0,0,0,0,0,0,0,0,0,0,0,0,0,0,0,0,0,0,0,0,0,
0,0,0,0,0,0,0,0,0,0,0,0,0,0,0,0,0,0,0,0,0,0,0,0,
0,0,0,0,0,0,0,0,0,0,0,0,0,0,0,0,0,0,0,0,0,0,0,0,
0,0,0,0,0,0,0,0,0,0,0,0,0,0,0,0,0,0,0,0,0,0,0,0,
0,0,0,0,0,0,0,0,0,0,0,0,0,0,0,0,0,0,0,0,0,0,0,0,
0,0,0,0,0,0,0,0,0,0,0,0,0,0,0,0,0,0,0,0,0,0,0,0,
0,0,0,0,0,0,0,0,0,0,0,0,0,0,0,0,0,0,0,0,0,0,0,0,
0,0,0,0,0,0,0,0,0,0,0,0,0,0,0,0,0,0,0,0,0,0,0,0,
0,0,0,0,0,0,0,0,0,0,0,0,0,0,0,0,0,0,0,0,0,0,0,0,
0,0,0,0,0,0,0,3209,3210,3211,3212,0,0,0,0,0,0,0,0,0,0,0,0,0,
0,0,0,0,0,0,0,3241,3242,3243,3244,0,0,0,0,0,0,0,0,0,0,0,0,0,
0,0,0,0,0,0,0,0,0,0,0,0,0,0,0,0,0,0,0,0,0,0,0,0,
0,0,0,0,0,0,0,0,0,0,0,0,0,0,0,0,0,0,0,0,0,0,0,0
</data>
 </layer>
 <layer id="2" name="Table" width="24" height="24">
  <data encoding="csv">
0,0,0,0,0,0,0,0,0,0,0,0,0,0,0,0,0,0,0,0,0,0,0,0,
0,0,0,0,0,0,0,0,0,0,0,873,874,0,0,0,0,0,0,0,0,0,0,0,
0,0,0,0,0,0,0,0,0,0,0,891,892,0,0,0,0,0,0,0,0,0,0,0,
49,50,54,55,56,55,55,56,57,55,60,909,910,0,0,0,0,0,0,0,0,0,2147484066,2147484065,
97,98,70,71,72,71,71,72,73,71,76,0,0,0,0,0,0,2555,0,0,0,0,2147484082,2147484081,
177,114,0,0,0,0,0,0,0,0,0,0,0,0,0,0,0,2587,0,0,0,0,2147484098,2147484097,
177,130,53,55,56,57,58,59,59,60,0,0,0,0,0,0,0,0,0,0,0,0,0,0,
129,130,69,71,72,73,74,75,75,76,0,0,0,0,0,0,0,0,0,0,0,0,0,0,
0,0,0,0,0,0,0,0,0,0,0,0,0,0,0,0,0,0,0,0,0,0,0,0,
0,49,64,0,49,64,49,64,0,0,0,0,0,0,0,0,0,0,0,0,0,0,0,0,
0,65,80,0,65,80,65,80,0,0,3441,3442,0,0,0,0,0,0,0,0,0,0,0,0,
0,65,80,0,65,80,65,80,0,3013,3473,3474,3016,3017,3018,0,0,0,0,0,0,0,0,0,
0,68,77,0,68,77,68,77,0,3045,3046,3047,3048,3049,3050,0,0,0,0,0,0,0,0,0,
0,0,0,0,0,0,0,0,0,3077,3078,3079,3080,3081,3082,0,0,0,0,0,0,0,0,0,
55,56,419,426,407,421,0,0,0,3109,3110,3111,3112,3113,3114,0,0,0,0,0,0,0,0,0,
71,72,451,458,455,453,0,0,0,3141,3142,3143,3144,3145,3146,0,49,64,49,64,0,49,64,0,
0,0,0,0,0,0,0,0,0,3173,3174,3175,3176,3177,3178,0,65,80,65,80,0,65,80,0,
0,0,0,0,0,0,0,0,0,0,0,0,0,0,0,0,65,80,65,80,0,65,80,0,
0,0,0,0,0,0,0,0,0,0,0,0,0,0,0,0,68,77,68,77,0,68,77,0,
0,0,0,0,0,0,0,0,0,0,0,0,0,0,0,0,0,0,0,0,0,0,0,0,
0,0,0,0,0,0,0,0,2777,2778,0,0,0,0,53,55,56,57,58,59,59,60,2147483778,2147483697,
0,0,0,0,0,0,0,0,2809,2810,0,0,0,0,69,71,72,73,74,75,75,76,191,192,
0,0,0,509,0,0,0,0,2841,2842,0,0,0,0,0,0,0,0,0,0,0,0,207,176,
0,0,0,0,0,0,0,0,0,0,0,0,0,53,54,55,56,54,55,56,57,58,59,192
</data>
 </layer>
 <layer id="6" name="Object" width="24" height="24">
  <data encoding="csv">
0,0,0,0,0,0,0,0,0,0,0,0,0,0,0,0,0,0,0,0,0,0,0,0,
0,0,0,0,0,0,0,0,0,0,0,0,0,0,0,0,0,0,0,0,0,0,0,0,
0,0,0,0,0,0,0,0,0,0,0,0,0,0,0,0,0,0,0,0,0,0,0,0,
0,0,0,0,0,0,0,0,0,0,0,0,0,0,0,0,0,0,0,0,0,0,0,0,
0,0,0,0,0,0,0,0,0,0,0,0,0,2147486860,2147486859,2147486858,2147486857,0,0,0,0,0,2147484066,2147484065,
0,0,0,0,0,0,0,0,0,0,0,0,0,2147486892,2147486891,2147486890,2147486889,0,509,508,508,509,2147484082,2147484081,
0,0,0,0,0,0,0,0,0,0,0,0,0,0,0,0,0,0,0,0,0,0,2147484098,2147484097,
0,0,0,0,0,0,0,0,0,0,0,2147483712,2147483791,0,0,0,0,0,0,0,0,0,0,0,
0,0,0,0,0,0,0,0,0,0,0,2147483728,2147483702,2147483702,2147483701,0,0,0,0,0,0,0,0,0,
0,0,0,0,0,0,0,0,0,0,0,2147483744,2147483718,2147483718,2147483717,0,0,0,0,0,0,0,0,0,
0,0,0,0,0,0,0,0,0,0,2538,3311,3312,3313,3314,0,0,0,509,508,508,509,0,0,
0,0,0,0,0,0,0,0,0,2147487088,2147487087,3343,3344,3345,3346,0,0,0,0,0,0,0,0,0,
0,0,0,0,0,0,0,0,0,2147487120,2147487119,3375,3376,3377,3378,0,0,0,0,0,0,0,0,0,
0,0,0,0,0,0,0,0,0,0,0,3407,3408,3409,3410,0,0,0,0,0,0,0,0,0,
369,370,0,0,0,0,0,0,0,0,0,0,0,0,0,0,0,0,0,0,0,0,0,0,
385,386,0,0,0,0,0,0,0,3447,3448,0,0,3457,3458,0,0,0,0,0,0,0,0,0,
401,402,0,0,0,0,0,0,0,3479,3480,0,0,3489,3490,0,0,0,0,0,0,0,0,0,
0,0,509,508,508,509,0,0,0,0,0,0,0,0,0,0,0,0,0,0,0,0,0,0,
0,0,0,0,0,0,0,0,0,53,54,63,64,0,0,0,0,0,0,0,0,0,0,0,
0,0,0,0,0,0,0,0,0,69,70,79,80,0,0,0,0,0,0,0,0,0,0,0,
0,0,0,0,0,0,0,0,0,0,0,95,96,0,0,0,0,0,0,0,0,0,0,0,
0,0,0,0,0,0,0,0,0,0,0,0,0,0,0,0,0,0,0,0,0,0,0,0,
0,0,509,508,508,509,0,3273,3274,3275,3276,0,0,0,0,0,0,0,0,0,0,0,0,0,
0,0,0,0,0,0,0,3305,3306,3307,3308,0,0,0,0,0,0,0,0,0,0,0,0,0
</data>
 </layer>
 <layer id="7" name="Object2" width="24" height="24">
  <data encoding="csv">
0,0,0,0,0,0,0,0,0,0,0,0,0,0,0,0,0,0,0,0,0,0,0,0,
0,0,0,0,0,0,0,0,0,0,0,0,0,0,0,0,0,0,0,0,0,0,0,0,
0,0,0,0,0,0,0,0,0,0,0,0,0,0,0,0,0,0,0,0,0,0,0,0,
0,0,0,0,0,0,0,0,0,0,0,0,0,0,0,0,0,0,0,0,0,0,0,0,
0,0,0,0,0,0,0,0,0,0,0,0,0,0,2777,2778,0,0,0,0,0,0,0,0,
0,0,0,0,0,0,0,0,0,0,0,0,0,0,2809,2810,0,0,0,0,0,0,2147484018,2147484017,
0,0,0,0,0,0,0,0,0,0,0,0,0,0,2841,2842,0,0,0,0,0,0,2147484034,2147484033,
0,0,0,0,0,0,0,0,0,0,0,0,0,0,0,0,0,0,0,0,0,0,2147484050,2147484049,
0,0,0,0,0,0,0,0,0,0,0,0,0,0,0,0,0,0,0,0,0,0,0,0,
0,0,0,0,0,0,0,0,0,0,0,0,0,0,0,0,0,0,0,0,0,0,0,0,
0,0,0,0,0,0,0,0,0,0,2538,2539,2540,2541,0,0,0,0,0,0,0,0,0,0,
0,0,0,0,0,0,0,0,0,0,2570,2571,2572,2573,0,0,0,0,0,0,0,0,0,0,
0,0,0,0,0,0,0,0,0,0,2602,2603,2604,2605,0,0,0,0,0,0,0,0,0,0,
0,0,0,0,0,0,0,0,0,0,2634,2635,2636,2637,0,0,0,0,0,0,0,0,0,0,
0,0,0,0,0,0,0,0,0,0,2666,2667,2668,2669,0,0,0,0,0,0,0,0,0,0,
417,418,0,0,0,0,0,0,0,0,2698,2699,2700,2701,0,0,0,0,0,0,0,0,0,0,
433,434,0,0,0,0,0,0,0,0,0,0,0,0,0,0,0,0,0,0,0,0,0,0,
449,450,0,0,0,0,0,0,0,0,0,0,0,0,0,0,0,0,0,0,0,0,0,0,
0,0,0,0,0,0,0,0,0,0,0,0,0,0,0,0,0,0,0,0,0,0,0,0,
0,0,0,0,0,0,0,0,0,0,0,0,0,0,0,0,0,0,0,0,0,0,0,0,
0,0,0,0,0,0,0,0,0,0,0,0,0,0,0,0,0,0,0,0,0,0,0,0,
0,0,0,0,0,0,0,0,0,0,0,0,0,0,0,0,0,0,0,0,0,0,0,0,
0,0,0,0,0,0,0,0,0,0,0,0,0,0,0,0,0,0,0,0,0,0,0,0,
0,0,0,0,0,0,0,0,0,0,0,0,0,0,0,0,0,0,0,0,0,0,0,0
</data>
 </layer>
 <layer id="8" name="Object3" width="24" height="24">
  <data encoding="csv">
0,0,0,0,0,0,0,0,0,0,0,0,0,0,0,0,0,0,0,0,0,0,0,0,
0,0,0,0,0,0,0,0,0,0,0,0,0,0,0,0,0,0,0,0,0,0,0,0,
0,0,0,0,0,0,0,0,0,0,0,0,0,0,0,0,0,0,0,0,0,0,0,0,
0,0,0,0,0,0,0,0,0,0,0,0,0,0,0,0,0,0,0,0,0,0,0,0,
0,0,0,0,0,0,0,0,0,0,0,0,0,0,0,0,0,0,0,0,0,0,0,0,
0,0,0,0,0,0,0,0,0,0,0,0,0,0,0,0,0,0,0,0,0,0,0,0,
0,0,0,0,0,0,0,0,0,0,0,0,0,3273,3274,3275,3276,0,0,0,0,0,0,0,
0,0,0,0,0,0,0,0,0,0,0,0,0,3305,3306,3307,3308,0,2147484073,2147484071,2147484074,2147484067,2147483704,2147483703,
0,0,0,0,0,0,0,0,0,0,0,0,0,0,0,0,0,0,2147484089,2147484087,2147484090,2147484083,2147483720,2147483719,
0,0,0,0,0,0,0,0,0,0,0,0,0,0,0,0,0,0,0,0,0,0,2147484066,0,
0,0,0,0,0,0,0,0,0,0,0,0,0,0,0,0,0,0,0,0,0,0,0,0,
0,0,0,0,0,0,0,0,0,0,0,0,0,0,0,0,0,0,0,0,0,0,0,0,
0,0,0,0,0,0,0,0,0,0,0,0,0,0,0,0,0,0,0,0,0,0,0,0,
0,0,0,0,0,0,0,0,0,0,0,0,0,0,0,0,0,0,0,0,0,0,0,0,
0,0,0,0,0,0,0,0,0,0,0,0,0,0,0,0,0,0,0,0,0,0,0,0,
0,0,0,0,0,0,0,0,0,0,0,0,0,0,0,0,0,0,0,0,0,0,0,0,
417,418,0,0,0,0,0,0,0,0,0,0,0,0,0,0,0,0,0,0,0,0,0,0,
433,434,0,0,0,0,0,0,0,0,0,0,0,0,0,0,0,0,0,0,0,0,0,0,
449,450,0,0,0,0,0,0,0,0,0,0,0,0,0,0,0,0,0,0,0,0,0,0,
0,0,0,0,0,0,0,0,0,0,0,0,0,0,0,0,0,0,0,0,0,0,0,0,
0,0,0,0,0,0,0,0,0,0,0,0,0,0,0,0,0,0,0,0,0,0,0,0,
0,0,0,0,0,0,0,0,0,0,0,0,0,0,0,0,0,0,0,0,0,0,0,0,
0,0,0,0,0,0,0,0,0,0,0,0,0,0,0,0,0,0,0,0,0,0,0,0,
0,0,0,0,0,0,0,0,0,0,0,2587,0,0,0,0,0,0,0,0,0,0,0,0
</data>
 </layer>
 <layer id="9" name="Object4" width="24" height="24">
  <data encoding="csv">
0,0,0,0,0,0,0,0,0,0,0,0,0,0,0,0,0,0,0,0,0,0,0,0,
0,0,0,0,0,0,0,0,0,0,0,0,0,0,0,0,0,0,0,0,0,0,0,0,
0,0,0,0,0,0,0,0,0,0,0,0,0,0,0,0,0,0,0,0,0,0,0,0,
0,0,0,0,0,0,0,0,0,0,0,0,0,0,0,0,0,0,0,0,0,0,0,0,
0,0,0,0,0,0,0,0,0,0,0,0,0,0,0,0,0,0,0,0,0,0,0,0,
0,0,0,0,0,0,0,0,0,0,0,0,0,0,0,0,0,0,0,0,0,0,0,0,
0,0,0,0,0,0,0,0,0,0,0,0,0,0,0,0,0,0,0,0,0,0,0,0,
0,0,0,0,0,0,0,0,0,0,0,0,0,0,0,0,0,0,0,0,0,0,2147484066,2147484065,
0,0,0,0,0,0,0,0,0,0,0,0,0,0,0,0,0,0,0,0,0,0,2147484082,2147484081,
0,0,0,0,0,0,0,0,0,0,0,0,0,0,0,0,0,0,0,0,0,0,2147484098,2147484097,
0,0,0,0,0,0,0,0,0,0,0,0,0,0,0,0,0,0,0,0,0,0,0,0,
0,0,0,0,0,0,0,0,0,0,0,0,0,0,0,0,0,0,0,0,0,0,0,0,
0,0,0,0,0,0,0,0,0,0,0,0,0,0,0,0,0,0,0,0,0,0,0,0,
0,0,0,0,0,0,0,0,0,0,0,0,0,0,0,0,0,0,0,0,0,0,0,0,
0,0,0,0,0,0,0,0,0,0,0,0,0,0,0,0,0,0,0,0,0,0,0,0,
0,0,0,0,0,0,0,0,0,0,0,0,0,0,0,0,0,0,0,0,0,0,0,0,
0,0,0,0,0,0,0,0,0,0,0,0,0,0,0,0,0,0,0,0,0,0,0,0,
417,418,0,0,0,0,0,0,0,0,0,0,0,0,0,0,0,0,0,0,0,0,0,0,
433,434,0,0,0,0,0,0,0,0,0,0,0,0,0,0,0,0,0,0,0,0,0,0,
449,450,0,0,0,0,0,0,0,0,0,0,0,0,0,0,0,0,0,0,0,0,0,0,
0,0,0,0,0,0,0,0,0,0,0,0,0,0,0,0,0,0,0,0,0,0,0,0,
0,0,0,0,0,0,0,0,0,0,0,0,0,0,0,0,0,0,0,0,0,0,0,0,
0,0,0,0,0,0,0,0,0,0,0,0,0,0,0,0,0,0,0,0,0,0,0,0,
0,0,0,0,0,0,0,0,0,0,0,0,0,0,0,0,0,0,0,0,0,0,0,0
</data>
 </layer>
 <layer id="10" name="Object5" width="24" height="24">
  <data encoding="csv">
0,0,0,0,0,0,0,0,0,0,0,0,0,0,0,0,0,0,0,0,0,0,0,0,
0,0,0,0,0,0,0,0,0,0,0,0,0,0,0,0,0,0,0,0,0,0,0,0,
0,0,0,0,0,0,0,0,0,0,0,0,0,0,0,0,0,0,0,0,0,0,0,0,
0,0,0,0,0,0,0,0,0,0,0,0,0,0,0,0,0,0,0,0,0,0,0,0,
0,0,0,0,0,0,0,0,0,0,0,0,0,0,0,0,0,0,0,0,0,0,0,0,
0,0,0,0,0,0,0,0,0,0,0,0,0,0,0,0,0,0,0,0,0,0,0,0,
0,0,0,0,0,0,0,0,0,0,0,0,0,0,0,0,0,0,0,0,0,0,0,0,
0,0,0,0,0,0,0,0,0,0,0,0,0,0,0,0,0,0,0,0,0,0,0,0,
0,0,0,0,0,0,0,0,0,0,0,0,0,0,0,0,0,0,0,0,0,0,2147484066,2147484065,
0,0,0,0,0,0,0,0,0,0,0,0,0,0,0,0,0,0,0,0,0,0,2147484082,2147484081,
0,0,0,0,0,0,0,0,0,0,0,0,0,0,0,0,0,0,0,0,0,0,2147484098,2147484097,
0,0,0,0,0,0,0,0,0,0,0,0,0,0,0,0,0,0,0,0,0,0,0,0,
0,0,0,0,0,0,0,0,0,0,0,0,0,0,0,0,0,0,0,0,0,0,0,0,
0,0,0,0,0,0,0,0,0,0,0,0,0,0,0,0,0,0,0,0,0,0,0,0,
0,0,0,0,0,0,0,0,0,0,0,0,0,0,0,0,0,0,0,0,0,0,0,0,
0,0,0,0,0,0,0,0,0,0,0,0,0,0,0,0,0,0,0,0,0,0,0,0,
0,0,0,0,0,0,0,0,0,0,0,0,0,0,0,0,0,0,0,0,0,0,0,0,
0,0,0,0,0,0,0,0,0,0,0,0,0,0,0,0,0,0,0,0,0,0,0,0,
0,370,0,0,0,0,0,0,0,0,0,0,0,0,0,0,0,0,0,0,0,0,0,0,
55,56,419,426,423,425,0,0,0,0,0,0,0,0,0,0,0,0,0,0,0,0,0,0,
71,72,435,442,439,441,0,0,0,0,0,0,0,0,0,0,0,0,0,0,0,0,0,0,
0,0,0,0,0,0,0,0,0,0,0,0,0,0,0,0,0,0,0,0,0,0,0,0,
0,0,0,0,0,0,0,0,0,0,0,0,0,0,0,0,0,0,0,0,0,0,0,0,
0,0,0,0,0,0,0,0,0,0,0,0,0,0,0,0,0,0,0,0,0,0,0,0
</data>
 </layer>
 <layer id="11" name="Object6" width="24" height="24">
  <data encoding="csv">
0,0,0,0,0,0,0,0,0,0,0,0,0,0,0,0,0,0,0,0,0,0,0,0,
0,0,0,0,0,0,0,0,0,0,0,0,0,0,0,0,0,0,0,0,0,0,0,0,
0,0,0,0,0,0,0,0,0,0,0,0,0,0,0,0,0,0,0,0,0,0,0,0,
0,0,0,0,0,0,0,0,0,0,0,0,0,0,0,0,0,0,0,0,0,0,0,0,
0,0,0,0,0,0,0,0,0,0,0,0,0,0,0,0,0,0,0,0,0,0,0,0,
0,0,0,0,0,0,0,0,0,0,0,0,0,0,0,0,0,0,0,0,0,0,0,0,
0,0,0,0,0,0,0,0,0,0,0,0,0,0,0,0,0,0,0,0,0,0,0,0,
0,0,0,0,0,0,0,0,0,0,0,0,0,0,0,0,0,0,0,0,0,0,0,0,
0,0,0,0,0,0,0,0,0,0,0,0,0,0,0,0,52,130,0,0,0,0,0,0,
0,0,0,0,0,0,0,0,0,0,0,0,0,0,0,0,65,130,0,0,0,0,2147484066,2147484065,
0,0,0,0,0,0,0,0,0,0,0,0,0,0,0,0,65,130,0,0,0,0,2147484082,2147484081,
0,0,0,0,0,0,0,0,0,0,0,0,0,0,0,0,81,130,0,0,0,0,2147484098,2147484097,
0,0,0,0,0,0,0,0,0,0,0,0,0,0,0,0,0,0,0,0,0,0,0,0,
0,0,0,0,0,0,0,0,0,0,0,0,0,0,0,0,0,0,0,0,0,0,0,0,
0,0,0,0,0,0,0,0,0,0,0,0,0,0,0,0,0,0,0,0,0,0,0,0,
0,0,0,0,0,0,0,0,0,0,0,0,0,0,0,0,0,0,0,0,0,0,0,0,
0,0,0,0,0,0,0,52,130,0,0,0,0,0,0,0,0,0,0,0,0,0,0,0,
0,0,0,0,0,0,0,65,130,0,0,0,0,0,0,0,0,0,0,0,0,0,0,0,
0,0,0,0,0,0,0,65,130,0,0,0,0,0,0,0,0,0,0,0,0,0,0,0,
369,370,0,0,0,0,0,81,130,0,0,0,0,0,0,0,0,0,0,0,0,0,0,0,
385,386,0,0,0,0,0,0,0,0,0,0,0,0,0,0,0,0,0,0,0,0,0,0,
401,402,0,0,0,0,0,0,0,0,0,0,0,0,0,0,0,0,0,0,0,0,0,0,
0,0,0,0,0,0,0,0,0,0,0,0,0,0,0,0,0,0,0,0,0,0,0,0,
0,0,0,0,0,0,0,0,0,0,0,0,0,0,0,0,0,0,0,0,0,0,0,0
</data>
 </layer>
 <layer id="12" name="Object7" width="24" height="24">
  <data encoding="csv">
0,0,0,0,0,0,0,0,0,0,0,0,0,0,0,0,0,0,0,0,0,0,0,0,
0,0,0,0,0,2448,2449,2450,0,0,0,0,0,0,0,0,0,0,4006,0,0,0,0,0,
0,0,0,3958,3959,0,0,0,0,0,0,0,0,0,0,0,0,0,0,0,3999,3999,0,0,
0,496,496,0,0,0,3996,0,4015,4016,0,0,0,0,0,0,0,0,0,0,0,0,0,0,
494,99,328,329,326,327,328,329,326,327,0,0,0,0,0,0,0,0,0,0,0,0,0,0,
0,115,0,0,0,0,0,0,0,0,0,0,0,0,0,0,0,0,0,0,0,0,0,0,
0,0,0,0,0,4004,4003,0,0,0,0,0,0,0,0,0,0,0,0,0,0,0,0,0,
0,0,0,293,294,0,0,2147483942,2147483941,0,0,4019,0,0,0,0,0,0,0,0,0,0,0,0,
0,0,0,0,0,0,0,0,0,0,0,0,0,4018,0,0,0,0,0,0,0,0,170,0,
0,0,2,0,0,0,0,0,0,0,0,0,0,0,0,0,4050,0,0,0,0,0,0,0,
0,0,2,0,0,0,0,0,0,0,0,0,0,0,0,0,4051,0,0,0,0,0,2147484018,2147484017,
0,0,2,0,0,3997,0,0,0,0,0,0,0,0,0,0,0,0,0,0,0,0,2147484034,2147484033,
0,0,0,0,0,0,0,0,0,0,0,0,0,0,0,0,0,0,0,0,0,0,2147484050,2147484049,
0,0,0,0,0,0,0,0,0,0,0,0,0,0,0,0,0,0,0,0,0,0,0,0,
0,0,0,0,0,0,0,0,0,0,0,0,0,0,0,0,0,0,0,0,0,0,0,0,
0,170,0,0,0,0,0,0,0,0,0,0,0,0,0,0,0,0,0,0,0,2147483650,0,0,
0,0,0,0,0,0,0,0,0,0,0,0,0,0,0,0,0,0,0,0,0,2147483650,0,0,
0,0,0,0,0,0,0,4025,0,0,0,0,0,0,0,0,0,4020,0,0,0,2147483650,0,0,
0,0,0,0,0,0,0,4025,0,0,4011,4012,0,0,0,0,0,0,0,0,0,0,0,0,
0,0,0,0,0,0,0,0,0,0,189,0,4019,0,0,0,0,0,0,0,0,0,0,0,
417,418,0,0,0,0,0,0,0,0,0,0,0,0,0,0,0,0,0,2147487704,4046,0,0,0,
433,434,0,0,0,0,0,0,0,0,0,0,0,0,0,0,0,0,0,0,0,0,0,0,
449,450,0,0,0,0,0,0,0,0,0,0,0,0,0,0,0,0,0,0,0,0,0,2147484142,
0,0,0,0,0,0,0,0,0,0,0,0,0,0,0,3998,4023,0,0,0,0,495,495,0
</data>
 </layer>
 <layer id="13" name="Object8" width="24" height="24">
  <data encoding="csv">
0,0,0,0,0,0,0,0,0,0,0,0,0,0,0,0,0,0,0,0,0,0,0,0,
0,0,0,0,0,0,0,0,0,0,0,0,0,0,0,0,0,0,0,0,0,0,0,0,
0,0,0,0,0,0,0,0,0,0,0,0,0,0,0,0,0,0,0,0,0,0,0,0,
0,0,0,0,0,4017,0,0,0,0,0,0,0,0,0,0,0,0,0,0,0,0,0,0,
0,0,0,0,0,0,0,0,0,0,0,0,0,0,0,0,0,0,0,0,0,0,0,0,
0,0,0,0,0,0,0,0,0,0,0,0,0,0,0,0,0,0,0,0,0,0,0,0,
0,0,0,4054,0,0,0,0,0,0,0,0,0,0,0,0,0,0,0,0,0,0,0,0,
0,0,0,0,0,0,0,0,0,0,0,0,0,0,0,0,0,0,0,0,0,0,4037,0,
0,0,0,0,0,0,0,0,0,0,0,0,0,0,0,0,0,0,0,0,0,0,0,0,
0,0,0,0,0,0,0,4007,0,0,0,0,0,0,0,0,0,0,0,0,0,0,0,0,
0,0,0,0,536874967,0,0,0,0,0,0,0,0,0,0,0,0,0,0,0,0,0,0,0,
0,0,0,0,0,0,0,0,0,0,0,0,0,0,0,0,0,0,0,0,0,0,0,0,
0,0,0,0,0,0,0,0,0,0,0,0,0,0,0,0,0,0,2147484069,2147484055,2147484074,2147484067,2147483704,2147483703,
0,0,0,0,0,0,0,0,0,0,0,0,0,0,0,0,0,0,2147484101,2147484103,2147484106,2147484099,2147483720,2147483719,
0,4029,0,0,0,0,0,0,0,0,0,0,0,0,0,0,0,0,0,0,0,0,0,0,
0,0,0,0,0,0,0,0,0,0,0,0,0,0,0,0,4008,0,0,0,0,0,0,0,
0,0,0,0,0,0,0,0,0,0,0,0,0,0,0,0,0,0,0,2684358615,0,0,0,0,
0,0,0,0,0,0,0,0,0,0,0,0,0,0,0,0,0,0,0,0,0,0,0,0,
0,0,0,0,0,0,0,0,0,0,0,0,0,0,0,0,0,0,0,0,0,0,0,0,
0,2147487685,0,0,0,0,0,0,0,0,0,0,0,0,0,0,0,0,0,0,0,0,0,0,
0,0,0,0,0,0,0,0,0,0,0,0,0,0,0,0,0,0,0,0,0,0,0,0,
417,418,0,0,0,0,0,0,0,0,0,0,0,0,0,0,0,0,0,0,0,0,0,0,
433,434,0,0,0,0,0,0,0,0,0,0,0,0,0,0,0,0,0,0,0,0,0,0,
449,450,0,0,0,0,0,0,0,0,0,0,0,0,0,0,0,0,0,0,0,0,0,0
</data>
 </layer>
 <layer id="15" name="Object9" width="24" height="24">
  <data encoding="csv">
0,0,0,0,0,0,0,0,0,0,0,0,0,0,0,0,0,0,0,0,0,0,0,0,
0,0,0,0,0,0,0,0,0,0,0,0,0,0,0,0,0,0,0,0,0,0,0,0,
0,0,0,0,0,0,0,0,0,0,0,0,0,0,0,0,0,0,0,0,0,0,0,0,
0,0,0,0,0,0,0,0,0,0,0,0,0,0,0,0,0,0,0,0,0,0,0,0,
0,0,0,0,0,0,0,0,0,0,0,0,0,0,0,0,0,0,0,0,0,0,0,0,
0,0,0,0,0,0,0,0,0,0,0,0,0,0,0,0,0,0,0,0,0,0,0,0,
0,0,0,0,0,0,0,0,0,0,0,0,0,0,0,0,0,0,0,0,0,0,0,0,
0,0,0,0,0,0,0,0,0,0,0,0,0,0,0,0,0,0,0,0,0,0,0,0,
0,0,0,0,0,0,0,0,0,0,0,0,0,0,0,0,0,0,0,0,0,0,0,0,
0,0,0,0,0,0,0,0,0,0,0,0,0,0,0,0,0,0,0,0,0,0,0,0,
0,0,0,0,0,0,0,0,0,0,0,0,0,0,0,0,0,0,0,0,0,0,0,0,
0,0,0,0,0,0,0,0,0,0,0,0,0,0,0,0,0,0,0,0,0,0,0,0,
0,0,0,0,0,0,0,0,0,0,0,0,0,0,0,0,0,0,0,0,0,0,4029,0,
0,0,0,0,0,0,0,0,0,0,0,0,0,0,0,0,0,0,0,0,0,0,0,0,
0,0,0,0,0,0,0,0,0,0,0,0,0,0,0,0,0,0,0,0,0,0,0,0,
0,0,0,0,0,0,0,0,0,0,0,0,0,0,0,0,0,0,0,0,0,0,0,0,
0,0,0,0,0,0,0,0,0,0,0,0,0,0,0,0,0,0,0,0,0,0,0,0,
0,0,0,0,0,0,0,0,0,0,0,0,0,0,0,0,0,0,0,0,0,0,0,0,
0,0,0,0,0,0,0,0,0,0,0,0,0,0,0,0,0,0,0,0,0,0,0,0,
0,0,0,0,0,0,0,0,0,0,0,0,0,0,0,0,0,0,0,0,0,0,0,0,
0,0,0,0,0,0,0,0,0,0,0,0,0,0,0,0,0,0,0,0,0,0,0,0,
0,0,0,0,0,0,0,0,0,0,0,0,0,0,0,0,0,0,0,0,0,0,0,0,
0,0,0,0,0,0,0,0,0,0,0,0,0,0,0,0,0,0,0,0,0,0,0,0,
0,0,0,0,0,0,0,0,0,0,0,0,0,0,0,0,0,0,0,0,0,0,0,0
</data>
 </layer>
 <objectgroup id="5" name="Object Layer 1"/>
</map>
